!!!OTL: MIT FROHEM MUTH UND HEITERM SINN
!!!ARE: Europa, Mitteleuropa, Deutschland, Hessen, Kreis Wetzlar
!!!SCT: E1606
!!!YEM: Copyright 1995, estate of Helmut Schaffrath.
**kern
*ICvox
*Ivox
*M4/4
*k[]
*C:
{8C
8E
=1
4.G
8E
4c
8B
8A
=2
8A
8G
4G
4G}
{4c
=3
4.d
8G
4G
8e
8d
=4
2c
4r}
{8C
8E
=5
4.G
8E
4c
8B
8A
=6
4A
4G
4G}
{4c
=7
4d
4d
8d
8G
4G
=8
4.c
8d
4e}
{4G
=9
4E
4A
4G
4G
=10
4.e
8d
4c}
{4A
=11
4G
4d
4c
4B
=12
2c
4r}
==
!!!AGN: Staende -, Handwerker -, Gesellen - Lied, Wanderschaft
!!!ONB: ESAC (Essen Associative Code) Database: ERK3
!!!AMT: simple quadruple
!!!AIN: vox
!!!EED: Helmut Schaffrath
!!!EEV: 1.0
*-
